X:40
T:the Fife Hunt
B:Aird's Airs and Melodies vol 3
M:C
Z:Richard Robinson 
%%TUNEURL: http://www.leeds.ac.uk/music/Info/RRTuneBk/gettune/00000198.html
%%ID:00000198
K:D
g|\
fd "tr"d2 AF "tr"F2| Eeed e2eg| \
g|\
fdad bdad| B(ee)^d e3g|
fdad bdad| Addc d2dg|\
fdad bdad| B(ee)^d "tr"e2eg| fadf gbec| A(dd)c d2d|]
